X:1
T:Hoogtij(d)
T:wals
C:Jan Alexander Stryckers
O:Lier VL-B
Z:jan.stryckers@lycos.nl
N:G-bagpipe / C-G harmonika
N: =high tide ( high time) / fluso (urgxa tempo)
M:3/4
L:1/4
P:(AB)n A
Q:3/4=60
R:waltz
K:C
P:[A]
|: G3-| GAB | c3-| cde | f2e | d2c | c3 | B3 |
A3-| ABc | d3-| def | gec | ABc | d3-| d3 |
 G3-| GAB | c3-| cde | f2e | d2c | B3 | A3 |
 d2e | fed | g2e | cdf | e3 | d3 |[1,2, c3-| cdB || [3 c3-| !fine!c3 |]
K:G
P:[B]
|: GG/A/B | AA/B/c | Bc/de/ | d2d | edc | BAG |
 =F2F-|=FF2 | GG/A/B | AA/B/c | Bc/de/ | d2d | edc |
 [1fed | g2d-| dB2 :| [2BAG | Bc/AB/ | G3 |]
